static/assets/images/icons/route.svg

<svg width="256" height="256" viewBox="0 0 256 256" fill="none" xmlns="http://www.w3.org/2000/svg">
<path fill-rule="evenodd" clip-rule="evenodd" d="M89.7526 203.453C78.1129 203.453 66.9499 198.829 58.7194 190.599C50.4889 182.368 45.865 171.205 45.865 159.565C45.865 147.926 50.4889 136.763 58.7194 128.532C66.9499 120.302 78.1129 115.678 89.7526 115.678L158.022 115.678C164.489 115.678 170.69 113.109 175.263 108.536C179.836 103.964 182.404 97.7622 182.404 91.2957C182.404 84.8291 179.836 78.6275 175.263 74.0549C170.69 69.4824 164.489 66.9136 158.022 66.9136H92.9711C90.6703 73.4235 86.1422 78.9105 80.187 82.4046C74.2319 85.8987 67.2332 87.175 60.428 86.0078C53.6228 84.8406 47.4494 81.3052 42.9989 76.0264C38.5484 70.7476 36.1074 64.0654 36.1074 57.1608C36.1074 50.2563 38.5484 43.5741 42.9989 38.2953C47.4494 33.0165 53.6228 29.481 60.428 28.3139C67.2332 27.1467 74.2319 28.423 80.187 31.9171C86.1422 35.4111 90.6703 40.8981 92.9711 47.408H158.022C169.662 47.408 180.825 52.0319 189.056 60.2624C197.286 68.4929 201.91 79.6559 201.91 91.2957C201.91 102.935 197.286 114.098 189.056 122.329C180.825 130.559 169.662 135.183 158.022 135.183H89.7526C83.2861 135.183 77.0844 137.752 72.5119 142.325C67.9394 146.897 65.3706 153.099 65.3706 159.565C65.3706 166.032 67.9394 172.234 72.5119 176.806C77.0844 181.379 83.2861 183.947 89.7526 183.947H188.554L174.29 166.116C172.46 164.268 171.432 161.761 171.432 159.146C171.432 156.532 172.46 154.024 174.29 152.176C176.12 150.327 178.601 149.289 181.189 149.289C183.776 149.289 186.258 150.327 188.087 152.176L217.212 186.795C220.842 191.023 220.777 197.315 217.059 201.465L188.087 235.005C186.258 236.854 183.776 237.893 181.189 237.893C178.601 237.893 176.12 236.854 174.29 235.005C172.46 233.157 171.432 230.649 171.432 228.035C171.432 225.421 172.46 222.913 174.29 221.065L188.554 203.453H89.7526ZM72.2669 50.2645C74.0959 52.0936 75.1234 54.5742 75.1234 57.1608C75.1234 59.7474 74.0959 62.2281 72.2669 64.0571C70.4379 65.8861 67.9572 66.9136 65.3706 66.9136C62.784 66.9136 60.3033 65.8861 58.4743 64.0571C56.6453 62.2281 55.6178 59.7474 55.6178 57.1608C55.6178 54.5742 56.6453 52.0936 58.4743 50.2645C60.3033 48.4355 62.784 47.408 65.3706 47.408C67.9572 47.408 70.4379 48.4355 72.2669 50.2645Z" fill="black"/>
</svg>

<svg xmlns="http://www.w3.org/2000/svg" fill="none" viewBox="0 0 256 256"><path fill="#000" fill-rule="evenodd" d="M89.753 203.453a43.89 43.89 0 0 1-43.888-43.888 43.89 43.89 0 0 1 43.888-43.887h68.269a24.381 24.381 0 0 0 0-48.764h-65.05a29.269 29.269 0 1 1 0-19.506h65.05a43.89 43.89 0 0 1 43.888 43.888 43.9 43.9 0 0 1-12.854 31.033 43.9 43.9 0 0 1-31.034 12.854h-68.27a24.38 24.38 0 0 0-24.381 24.382 24.38 24.38 0 0 0 24.382 24.382h98.801l-14.264-17.831a9.9 9.9 0 0 1-2.858-6.97 9.9 9.9 0 0 1 2.858-6.97 9.7 9.7 0 0 1 6.899-2.887 9.7 9.7 0 0 1 6.898 2.887l29.125 34.619c3.63 4.228 3.565 10.52-.153 14.67l-28.972 33.54a9.7 9.7 0 0 1-6.898 2.888 9.7 9.7 0 0 1-6.899-2.888 9.9 9.9 0 0 1-2.858-6.97 9.9 9.9 0 0 1 2.858-6.97l14.264-17.612zM72.267 50.265a9.753 9.753 0 1 1-13.793 13.792 9.753 9.753 0 0 1 13.793-13.793" clip-rule="evenodd"/></svg>
